X:1
T: Judy McFadden's -- Jig
R: jig
M: 6/8
L: 1/8
B: Ryan's Mammoth Collection
Z: Contributed by Ray Davies, ray:davies99.freeserve.co.uk
K: A
uE|vA3  c>BA|"4"e>cA c>BA|(B2.c) (d2.e)|(f>a)f ecB|
A3  c>BA|(e>c)A c>BA|(B2.c) d>cB|(cA)F F2::
uA|A>FE EFA|B>AF (d2f)|e>dc cBA|BAF (F2A)|
A>FE EFA|B>AF (d2f)|e>dc BAB|(cA)A A2:|
